!!!OTL: SIST NO NIT LANG
!!!ARE: Europa, Mitteleuropa, Deutschland
!!!SCT: E1008A
!!!YEM: Copyright 1995, estate of Helmut Schaffrath.
**kern
*ICvox
*Ivox
*M2/4
*k[b-]
*F:
{16f
16a
=1
8.cc
16a
8.b-
16g
=2
16a
16g
16a
16b-
8a}
{16f
16a
=3
8.cc
16a
8.b-
16g
=4
4a
8r}
{8a
=5
8.a
16g
8g
8b-
=6
8.b-
16a
8a}
{8cc
=7
16ff
16cc
16a
16f
16g
16b-
16a
16g
=8
4f
8r}
==
!!!AGN: Tanz - Lied, Liebe, Klage
!!!ONB: ESAC (Essen Associative Code) Database: ERK3
!!!AMT: simple duple
!!!AIN: vox
!!!EED: Helmut Schaffrath
!!!EEV: 1.0
*-
